gama.ui.shared/icons_svg/light/views/tabs/view.minimap.svg

<svg height="24.75" viewBox="-422.649 -2973.769 24.75 24.75" width="24.75" xmlns="http://www.w3.org/2000/svg"><path d="m-408.89626-2960.2207c-.017.0454-.04378.0881-.08034.1247-.0366.0365-.0792.0633-.1247.0803l-3.4928 1.3971c-.2857.1143-.56925-.1692-.45496-.4549l1.39712-3.4928c.017-.0455.04379-.0882.08034-.1247.0366-.0366.07923-.0634.1247-.0804l3.4928-1.3971c.28573-.1143.56925.1692.45497.4549zm-1.80504-2.095 1.34937 1.3493.89956-2.2489zm.8544 1.8443-1.34936-1.3493-.89957 2.2489zm-.4272 6.0779c-3.866 0-7-3.134-7-7s3.134-7 7-7 7 3.134 7 7-3.134 7-7 7zm0-.7c3.4794 0 6.3-2.8205 6.3-6.3s-2.8206-6.3-6.3-6.3-6.3 2.8205-6.3 6.3 2.8206 6.3 6.3 6.3z" fill="#5c76a1"/></svg>

<?xml version="1.0" encoding="UTF-8" standalone="no"?>
<!DOCTYPE svg PUBLIC "-//W3C//DTD SVG 1.1//EN" "http://www.w3.org/Graphics/SVG/1.1/DTD/svg11.dtd">
<svg xmlns="http://www.w3.org/2000/svg" xmlns:dc="http://purl.org/dc/elements/1.1/" version="1.1" xmlns:xl="http://www.w3.org/1999/xlink" viewBox="-422.6491 -2973.7685 24.75 24.75" width="24.75" height="24.75">
  <defs/>
  <g id="SOURCES" fill="none" stroke="none" stroke-dasharray="none" fill-opacity="1" stroke-opacity="1">
    <title>SOURCES</title>
    <g id="SOURCES_Light">
      <title>Light</title>
      <g id="Group_12721">
        <g id="Graphic_10429">
          <path d="M -408.89626 -2960.2207 C -408.91326 -2960.1753 -408.94004 -2960.1326 -408.9766 -2960.096 C -409.0132 -2960.0595 -409.0558 -2960.0327 -409.1013 -2960.0157 L -412.5941 -2958.6186 C -412.8798 -2958.5043 -413.16335 -2958.7878 -413.04906 -2959.0735 L -411.65194 -2962.5663 C -411.63494 -2962.6118 -411.60815 -2962.6545 -411.5716 -2962.691 C -411.535 -2962.7276 -411.49237 -2962.7544 -411.4469 -2962.7714 L -407.9541 -2964.1685 C -407.66837 -2964.2828 -407.38485 -2963.9993 -407.49913 -2963.7136 L -408.89626 -2960.2207 Z M -410.7013 -2962.3157 L -409.35193 -2960.9664 L -408.45237 -2963.2153 L -410.7013 -2962.3157 Z M -409.8469 -2960.4714 L -411.19626 -2961.8207 L -412.09583 -2959.5718 L -409.8469 -2960.4714 Z M -410.2741 -2954.3935 C -414.1401 -2954.3935 -417.2741 -2957.5275 -417.2741 -2961.3935 C -417.2741 -2965.2595 -414.1401 -2968.3935 -410.2741 -2968.3935 C -406.4081 -2968.3935 -403.2741 -2965.2595 -403.2741 -2961.3935 C -403.2741 -2957.5275 -406.4081 -2954.3935 -410.2741 -2954.3935 Z M -410.2741 -2955.0935 C -406.7947 -2955.0935 -403.9741 -2957.914 -403.9741 -2961.3935 C -403.9741 -2964.873 -406.7947 -2967.6935 -410.2741 -2967.6935 C -413.7535 -2967.6935 -416.5741 -2964.873 -416.5741 -2961.3935 C -416.5741 -2957.914 -413.7535 -2955.0935 -410.2741 -2955.0935 Z" fill="#5c76a1"/>
        </g>
        <g id="Graphic_12718"/>
      </g>
    </g>
  </g>
</svg>
